contributed-vectors/ocr.svg

<svg width="192" height="192" viewBox="0 0 192 192" fill="none" xmlns="http://www.w3.org/2000/svg">
<path d="M96 184C144.601 184 184 144.601 184 96C184 47.3989 144.601 8 96 8C47.3989 8 8 47.3989 8 96C8 144.601 47.3989 184 96 184Z" fill="#728DBE"/>
<path d="M125.992 106.712H67.592V118.392H125.992V106.712Z" fill="white"/>
<path d="M111.392 90.3601H67.592V102.04H111.392V90.3601Z" fill="white"/>
<path d="M125.992 74.0081H67.592V85.6881H125.992V74.0081Z" fill="white"/>
<path fill-rule="evenodd" clip-rule="evenodd" d="M72.264 67H60V79.264C60 80.5541 61.0459 81.6 62.336 81.6C63.6261 81.6 64.672 80.5541 64.672 79.264V71.672H72.264C73.5541 71.672 74.6 70.6261 74.6 69.336C74.6 68.0459 73.5541 67 72.264 67Z" fill="white"/>
<path fill-rule="evenodd" clip-rule="evenodd" d="M133 113.136C133 111.846 131.954 110.8 130.664 110.8C129.374 110.8 128.328 111.846 128.328 113.136V120.728H120.736C119.446 120.728 118.4 121.774 118.4 123.064C118.4 124.354 119.446 125.4 120.736 125.4H133V113.136Z" fill="white"/>
<path fill-rule="evenodd" clip-rule="evenodd" d="M120.736 67C119.446 67 118.4 68.0459 118.4 69.336C118.4 70.6261 119.446 71.672 120.736 71.672H128.328V79.264C128.328 80.5541 129.374 81.6 130.664 81.6C131.954 81.6 133 80.5541 133 79.264V67H120.736Z" fill="white"/>
<path fill-rule="evenodd" clip-rule="evenodd" d="M60 125.4C60.0072 125.4 60.0144 125.4 60.0215 125.4H72.264C73.5541 125.4 74.6 124.354 74.6 123.064C74.6 121.774 73.5541 120.728 72.264 120.728H64.672V113.136C64.672 111.846 63.6261 110.8 62.336 110.8C61.0459 110.8 60 111.846 60 113.136V125.4Z" fill="white"/>
</svg>

<svg xmlns="http://www.w3.org/2000/svg" width="192" height="192" fill="none"><path fill="#728DBE" d="M96 184c48.601 0 88-39.399 88-88S144.601 8 96 8 8 47.399 8 96s39.399 88 88 88Z"/><path fill="#fff" d="M125.992 106.712h-58.4v11.68h58.4v-11.68ZM111.392 90.36h-43.8v11.68h43.8V90.36ZM125.992 74.008h-58.4v11.68h58.4v-11.68Z"/><path fill="#fff" fill-rule="evenodd" d="M72.264 67H60v12.264a2.336 2.336 0 0 0 4.672 0v-7.592h7.592a2.336 2.336 0 0 0 0-4.672ZM133 113.136a2.336 2.336 0 0 0-4.672 0v7.592h-7.592a2.336 2.336 0 0 0 0 4.672H133v-12.264ZM120.736 67a2.336 2.336 0 0 0 0 4.672h7.592v7.592a2.336 2.336 0 0 0 4.672 0V67h-12.264ZM60 125.4H72.264a2.336 2.336 0 0 0 0-4.672h-7.592v-7.592a2.336 2.336 0 0 0-4.672 0V125.4Z" clip-rule="evenodd"/></svg>
